copytrade/img/icomoon/gears.svg

<svg width="24" height="24" viewBox="0 0 24 24" fill="none" xmlns="http://www.w3.org/2000/svg">
<path fill-rule="evenodd" clip-rule="evenodd" d="M12.7789 3C13.6879 3 14.4248 3.68995 14.4248 4.54104C14.4248 5.19575 14.8764 5.76411 15.4909 6.07658C15.5869 6.12543 15.6817 6.17624 15.7751 6.22894C16.3784 6.56948 17.1344 6.65123 17.7459 6.32366C18.5438 5.8962 19.5605 6.15128 20.0233 6.89501L20.7756 8.10414C21.2365 8.84494 20.9645 9.79548 20.1697 10.2213C19.5609 10.5474 19.2579 11.1992 19.2727 11.8558C19.2738 11.9037 19.2743 11.9518 19.2743 12C19.2743 12.0482 19.2738 12.0963 19.2727 12.1443C19.2579 12.8009 19.5609 13.4526 20.1697 13.7788C20.9645 14.2045 21.2365 15.1551 20.7756 15.8958L20.0232 17.105C19.5605 17.8487 18.5437 18.1038 17.7458 17.6763C17.1344 17.3488 16.3783 17.4305 15.775 17.7711C15.6817 17.8238 15.5869 17.8746 15.4909 17.9234C14.8764 18.2359 14.4248 18.8042 14.4248 19.459C14.4248 20.3101 13.6879 21 12.7789 21H11.2211C10.3121 21 9.57523 20.3101 9.57523 19.459C9.57523 18.8042 9.1236 18.2359 8.50914 17.9234C8.41307 17.8746 8.31832 17.8238 8.22494 17.7711C7.62164 17.4305 6.86558 17.3488 6.25415 17.6763C5.45627 18.1038 4.43953 17.8487 3.97679 17.105L3.22445 15.8958C2.76353 15.155 3.03554 14.2045 3.83027 13.7787C4.43907 13.4526 4.74214 12.8009 4.72731 12.1443C4.72622 12.0963 4.72568 12.0482 4.72568 12C4.72568 11.9518 4.72622 11.9037 4.72731 11.8558C4.74214 11.1992 4.43906 10.5474 3.83025 10.2213C3.03551 9.79549 2.7635 8.84495 3.22442 8.10415L3.97674 6.89501C4.43948 6.15129 5.45623 5.89621 6.25412 6.32367C6.86556 6.65124 7.62163 6.56948 8.22494 6.22895C8.31831 6.17624 8.41306 6.12544 8.50914 6.07658C9.1236 5.76411 9.57523 5.19575 9.57523 4.54104C9.57523 3.68995 10.3121 3 11.2211 3H12.7789ZM15 12C15 13.6569 13.6569 15 12 15C10.3431 15 9 13.6569 9 12C9 10.3431 10.3431 9 12 9C13.6569 9 15 10.3431 15 12Z" fill="#A6ACB7"/>
</svg>

<svg width="24" height="24" fill="none" xmlns="http://www.w3.org/2000/svg"><path fill-rule="evenodd" clip-rule="evenodd" d="M12.779 3c.909 0 1.646.69 1.646 1.541 0 .655.451 1.223 1.066 1.536.096.048.19.1.284.152.603.34 1.36.422 1.97.095.799-.428 1.816-.173 2.278.571l.753 1.21c.46.74.189 1.69-.606 2.116-.61.326-.912.978-.897 1.635a6.283 6.283 0 010 .288c-.015.657.288 1.309.897 1.635.794.425 1.066 1.376.606 2.117l-.753 1.209c-.462.744-1.48.999-2.277.571-.612-.327-1.368-.245-1.971.095a7.35 7.35 0 01-.284.152c-.615.313-1.066.881-1.066 1.536 0 .851-.737 1.541-1.646 1.541H11.22c-.909 0-1.646-.69-1.646-1.541 0-.655-.451-1.223-1.066-1.536-.096-.048-.19-.1-.284-.152-.603-.34-1.36-.422-1.97-.095-.799.428-1.815.173-2.278-.571l-.753-1.21c-.46-.74-.188-1.69.606-2.116.61-.326.912-.978.897-1.635a6.356 6.356 0 010-.288c.015-.657-.288-1.309-.897-1.635-.794-.426-1.067-1.376-.606-2.117l.753-1.209c.462-.744 1.48-.999 2.277-.571.612.327 1.368.245 1.97-.095.094-.053.19-.104.285-.152.615-.313 1.066-.881 1.066-1.536C9.574 3.69 10.311 3 11.22 3h1.558zM15 12a3 3 0 11-6 0 3 3 0 016 0z" fill="#A6ACB7"/></svg>
